src/assets/actions/togglestream/key.svg

<svg xmlns="http://www.w3.org/2000/svg" width="144" height="144" viewBox="0 0 144 144">
	<path fill="#EFEFEF" fill-rule="evenodd"
		d="M72,104 C54.326888,104 40,89.673112 40,72 C40,54.326888 54.326888,40 72,40 C89.673112,40 104,54.326888 104,72 C104,89.673112 89.673112,104 72,104 Z M72,100 C87.463973,100 100,87.463973 100,72 C100,56.536027 87.463973,44 72,44 C56.536027,44 44,56.536027 44,72 C44,87.463973 56.536027,100 72,100 Z M64.9289322,79.0710678 C61.0236893,75.1658249 61.0236893,68.8341751 64.9289322,64.9289322 L72,72 L79.0710678,64.9289322 C82.9763107,68.8341751 82.9763107,75.1658249 79.0710678,79.0710678 L72,72 L64.9289322,79.0710678 Z M62.1005051,62.1005051 C56.633165,67.5678451 56.633165,76.4321549 62.1005051,81.8994949 L57.8578644,86.1421356 C50.0473785,78.3316498 50.0473785,65.6683502 57.8578644,57.8578644 L62.1005051,62.1005051 Z M81.8994949,62.1005051 L86.1421356,57.8578644 C93.9526215,65.6683502 93.9526215,78.3316498 86.1421356,86.1421356 L81.8994949,81.8994949 C87.366835,76.4321549 87.366835,67.5678451 81.8994949,62.1005051 Z">
	</path>
</svg>

<svg xmlns="http://www.w3.org/2000/svg" width="144" height="144"><path fill="#EFEFEF" fill-rule="evenodd" d="M72 104c-17.673 0-32-14.327-32-32 0-17.673 14.327-32 32-32 17.673 0 32 14.327 32 32 0 17.673-14.327 32-32 32zm0-4c15.464 0 28-12.536 28-28S87.464 44 72 44 44 56.536 44 72s12.536 28 28 28zm-7.071-20.929c-3.905-3.905-3.905-10.237 0-14.142L72 72l7.071-7.071c3.905 3.905 3.905 10.237 0 14.142L72 72l-7.071 7.071zM62.1 62.101c-5.468 5.467-5.468 14.331 0 19.798l-4.243 4.243c-7.81-7.81-7.81-20.474 0-28.284L62.1 62.1zm19.798 0l4.243-4.243c7.81 7.81 7.81 20.474 0 28.284L81.9 81.9c5.468-5.467 5.468-14.331 0-19.798z"/></svg>
